logos/cell_type_mapper.svg

<?xml version="1.0" encoding="UTF-8"?>
<!DOCTYPE svg PUBLIC "-//W3C//DTD SVG 1.1//EN" "http://www.w3.org/Graphics/SVG/1.1/DTD/svg11.dtd">
<svg xmlns="http://www.w3.org/2000/svg" version="1.1" width="438px" height="106px" style="shape-rendering:geometricPrecision; text-rendering:geometricPrecision; image-rendering:optimizeQuality; fill-rule:evenodd; clip-rule:evenodd" xmlns:xlink="http://www.w3.org/1999/xlink">
<g><path style="opacity:1" fill="#0e1116" d="M -0.5,-0.5 C 145.5,-0.5 291.5,-0.5 437.5,-0.5C 437.5,34.8333 437.5,70.1667 437.5,105.5C 291.5,105.5 145.5,105.5 -0.5,105.5C -0.5,70.1667 -0.5,34.8333 -0.5,-0.5 Z"/></g>
<g><path style="opacity:1" fill="#dde3e8" d="M 63.5,55.5 C 61.7354,56.4614 59.7354,56.7947 57.5,56.5C 53.2744,49.3811 48.1077,48.7144 42,54.5C 39.8777,60.2867 40.2111,65.9533 43,71.5C 49.0952,75.0599 53.9285,73.8932 57.5,68C 59.4727,67.5045 61.4727,67.3379 63.5,67.5C 63.4436,73.1028 60.777,76.9362 55.5,79C 41.4434,81.9372 34.1101,76.2705 33.5,62C 34.0847,48.5297 41.0847,42.863 54.5,45C 59.5266,46.8534 62.5266,50.3534 63.5,55.5 Z"/></g>
<g><path style="opacity:1" fill="#85898f" d="M 100.5,45.5 C 98.5,45.5 96.5,45.5 94.5,45.5C 94.5,56.8333 94.5,68.1667 94.5,79.5C 93.5051,68.012 93.1717,56.3453 93.5,44.5C 96.0593,44.1984 98.3926,44.5318 100.5,45.5 Z"/></g>
<g><path style="opacity:1" fill="#e6ecf1" d="M 100.5,45.5 C 100.5,56.8333 100.5,68.1667 100.5,79.5C 98.5,79.5 96.5,79.5 94.5,79.5C 94.5,68.1667 94.5,56.8333 94.5,45.5C 96.5,45.5 98.5,45.5 100.5,45.5 Z"/></g>
<g><path style="opacity:1" fill="#85898f" d="M 112.5,45.5 C 110.5,45.5 108.5,45.5 106.5,45.5C 106.5,56.8333 106.5,68.1667 106.5,79.5C 105.505,68.012 105.172,56.3453 105.5,44.5C 108.059,44.1984 110.393,44.5318 112.5,45.5 Z"/></g>
<g><path style="opacity:1" fill="#e6ecf1" d="M 112.5,45.5 C 112.5,56.8333 112.5,68.1667 112.5,79.5C 110.5,79.5 108.5,79.5 106.5,79.5C 106.5,68.1667 106.5,56.8333 106.5,45.5C 108.5,45.5 110.5,45.5 112.5,45.5 Z"/></g>
<g><path style="opacity:1" fill="#e2e8ed" d="M 126.5,45.5 C 135.5,45.5 144.5,45.5 153.5,45.5C 153.5,47.1667 153.5,48.8333 153.5,50.5C 150.167,50.5 146.833,50.5 143.5,50.5C 143.5,60.1667 143.5,69.8333 143.5,79.5C 141.167,79.5 138.833,79.5 136.5,79.5C 136.5,69.8333 136.5,60.1667 136.5,50.5C 133.167,50.5 129.833,50.5 126.5,50.5C 126.5,48.8333 126.5,47.1667 126.5,45.5 Z"/></g>
<g><path style="opacity:1" fill="#e1e7ec" d="M 244.5,45.5 C 247.247,45.1866 249.914,45.52 252.5,46.5C 255.667,54.1667 258.833,61.8333 262,69.5C 265.264,61.8737 268.431,54.2071 271.5,46.5C 274.086,45.52 276.753,45.1866 279.5,45.5C 279.5,56.8333 279.5,68.1667 279.5,79.5C 277.5,79.5 275.5,79.5 273.5,79.5C 273.666,72.4921 273.5,65.4921 273,58.5C 270.333,65.1667 267.667,71.8333 265,78.5C 263.186,79.7596 261.353,79.7596 259.5,78.5C 256.569,71.54 253.736,64.54 251,57.5C 250.5,64.8258 250.334,72.1591 250.5,79.5C 248.5,79.5 246.5,79.5 244.5,79.5C 244.5,68.1667 244.5,56.8333 244.5,45.5 Z"/></g>
<g><path style="opacity:1" fill="#dee4e9" d="M 74.5,53.5 C 85.6953,52.364 91.0286,57.364 90.5,68.5C 84.8333,68.5 79.1667,68.5 73.5,68.5C 74.123,73.2881 76.7897,75.1214 81.5,74C 84.2005,71.632 87.2005,71.132 90.5,72.5C 89.3633,75.4698 87.3633,77.6365 84.5,79C 71.2202,81.3867 65.3869,75.8867 67,62.5C 68.268,58.4047 70.768,55.4047 74.5,53.5 Z"/></g>
<g><path style="opacity:1" fill="#e0e6eb" d="M 179.5,87.5 C 179.5,76.5 179.5,65.5 179.5,54.5C 181.167,54.5 182.833,54.5 184.5,54.5C 184.281,55.675 184.614,56.675 185.5,57.5C 186.107,57.3764 186.44,57.0431 186.5,56.5C 186.953,55.5416 187.619,54.7083 188.5,54C 198.182,52.5135 203.182,56.6802 203.5,66.5C 203.775,77.0613 198.775,81.228 188.5,79C 187.333,78.5 186.5,77.6667 186,76.5C 185.501,80.1516 185.335,83.8183 185.5,87.5C 183.5,87.5 181.5,87.5 179.5,87.5 Z"/></g>
<g><path style="opacity:1" fill="#dee4e9" d="M 214.5,53.5 C 225.695,52.364 231.029,57.364 230.5,68.5C 224.833,68.5 219.167,68.5 213.5,68.5C 214.123,73.2881 216.79,75.1214 221.5,74C 224.2,71.632 227.2,71.132 230.5,72.5C 229.363,75.4698 227.363,77.6365 224.5,79C 211.22,81.3867 205.387,75.8867 207,62.5C 208.268,58.4047 210.768,55.4047 214.5,53.5 Z"/></g>
<g><path style="opacity:1" fill="#dde3e8" d="M 290.5,61.5 C 288.219,61.9227 286.552,61.256 285.5,59.5C 286.254,56.909 287.921,55.0757 290.5,54C 296.645,52.412 301.811,53.912 306,58.5C 306.5,65.4921 306.666,72.4921 306.5,79.5C 303.606,79.9577 301.106,79.291 299,77.5C 295.405,79.4559 291.572,79.9559 287.5,79C 282.687,74.9586 282.354,70.6253 286.5,66C 290.7,64.6326 295.033,64.1326 299.5,64.5C 298.515,57.8335 295.515,56.8335 290.5,61.5 Z"/></g>
<g><path style="opacity:1" fill="#e0e6eb" d="M 311.5,87.5 C 311.5,76.5 311.5,65.5 311.5,54.5C 313.167,54.5 314.833,54.5 316.5,54.5C 316.281,55.675 316.614,56.675 317.5,57.5C 318.107,57.3764 318.44,57.0431 318.5,56.5C 318.953,55.5416 319.619,54.7083 320.5,54C 330.182,52.5135 335.182,56.6802 335.5,66.5C 335.775,77.0613 330.775,81.228 320.5,79C 319.333,78.5 318.5,77.6667 318,76.5C 317.501,80.1516 317.335,83.8183 317.5,87.5C 315.5,87.5 313.5,87.5 311.5,87.5 Z"/></g>
<g><path style="opacity:1" fill="#e0e6eb" d="M 340.5,87.5 C 340.5,76.5 340.5,65.5 340.5,54.5C 342.167,54.5 343.833,54.5 345.5,54.5C 345.281,55.675 345.614,56.675 346.5,57.5C 347.107,57.3764 347.44,57.0431 347.5,56.5C 347.953,55.5416 348.619,54.7083 349.5,54C 359.182,52.5135 364.182,56.6802 364.5,66.5C 364.775,77.0613 359.775,81.228 349.5,79C 348.333,78.5 347.5,77.6667 347,76.5C 346.501,80.1516 346.335,83.8183 346.5,87.5C 344.5,87.5 342.5,87.5 340.5,87.5 Z"/></g>
<g><path style="opacity:1" fill="#dee4e9" d="M 374.5,53.5 C 385.695,52.364 391.029,57.364 390.5,68.5C 384.833,68.5 379.167,68.5 373.5,68.5C 374.123,73.2881 376.79,75.1214 381.5,74C 384.2,71.632 387.2,71.132 390.5,72.5C 389.363,75.4698 387.363,77.6365 384.5,79C 371.22,81.3867 365.387,75.8867 367,62.5C 368.268,58.4047 370.768,55.4047 374.5,53.5 Z"/></g>
<g><path style="opacity:1" fill="#e1e6eb" d="M 395.5,79.5 C 395.5,71.1667 395.5,62.8333 395.5,54.5C 397.821,54.2289 399.821,54.8955 401.5,56.5C 402.107,56.3764 402.44,56.0431 402.5,55.5C 402.611,54.8826 402.944,54.3826 403.5,54C 405.473,53.5045 407.473,53.3379 409.5,53.5C 409.5,55.5 409.5,57.5 409.5,59.5C 406.635,59.0548 404.135,59.7215 402,61.5C 401.501,67.4908 401.334,73.4908 401.5,79.5C 399.5,79.5 397.5,79.5 395.5,79.5 Z"/></g>
<g><path style="opacity:1" fill="#dae0e5" d="M 150.5,53.5 C 153.119,53.2317 155.619,53.565 158,54.5C 159.53,59.9583 161.363,65.2917 163.5,70.5C 165.634,64.9618 167.301,59.2951 168.5,53.5C 170.833,53.5 173.167,53.5 175.5,53.5C 172.58,64.012 169.08,74.3453 165,84.5C 161.673,87.1539 157.839,88.1539 153.5,87.5C 153.5,85.8333 153.5,84.1667 153.5,82.5C 156.571,83.0755 158.571,81.9088 159.5,79C 156.394,70.5143 153.394,62.0143 150.5,53.5 Z"/></g>
<g><path style="opacity:1" fill="#a6abb0" d="M 186.5,56.5 C 186.44,57.0431 186.107,57.3764 185.5,57.5C 184.614,56.675 184.281,55.675 184.5,54.5C 182.833,54.5 181.167,54.5 179.5,54.5C 179.5,65.5 179.5,76.5 179.5,87.5C 178.505,76.3456 178.172,65.0123 178.5,53.5C 180.833,53.5 183.167,53.5 185.5,53.5C 185.263,54.791 185.596,55.791 186.5,56.5 Z"/></g>
<g><path style="opacity:1" fill="#a6abb0" d="M 318.5,56.5 C 318.44,57.0431 318.107,57.3764 317.5,57.5C 316.614,56.675 316.281,55.675 316.5,54.5C 314.833,54.5 313.167,54.5 311.5,54.5C 311.5,65.5 311.5,76.5 311.5,87.5C 310.505,76.3456 310.172,65.0123 310.5,53.5C 312.833,53.5 315.167,53.5 317.5,53.5C 317.263,54.791 317.596,55.791 318.5,56.5 Z"/></g>
<g><path style="opacity:1" fill="#a6abb0" d="M 347.5,56.5 C 347.44,57.0431 347.107,57.3764 346.5,57.5C 345.614,56.675 345.281,55.675 345.5,54.5C 343.833,54.5 342.167,54.5 340.5,54.5C 340.5,65.5 340.5,76.5 340.5,87.5C 339.505,76.3456 339.172,65.0123 339.5,53.5C 341.833,53.5 344.167,53.5 346.5,53.5C 346.263,54.791 346.596,55.791 347.5,56.5 Z"/></g>
<g><path style="opacity:1" fill="#a4a9ae" d="M 402.5,55.5 C 402.44,56.0431 402.107,56.3764 401.5,56.5C 399.821,54.8955 397.821,54.2289 395.5,54.5C 395.5,62.8333 395.5,71.1667 395.5,79.5C 394.507,71.0161 394.174,62.3494 394.5,53.5C 397.533,53.1315 400.2,53.7982 402.5,55.5 Z"/></g>
<g><path style="opacity:1" fill="#7d8287" d="M 63.5,55.5 C 64.0431,55.56 64.3764,55.8933 64.5,56.5C 62.0268,57.7969 59.6934,57.7969 57.5,56.5C 59.7354,56.7947 61.7354,56.4614 63.5,55.5 Z"/></g>
<g><path style="opacity:1" fill="#1a1c21" d="M 83.5,62.5 C 82.2067,63.1582 80.7067,63.4915 79,63.5C 77.0145,63.4313 75.5145,62.7647 74.5,61.5C 76.5266,58.1637 79.1932,57.6637 82.5,60C 83.2524,60.6708 83.5858,61.5041 83.5,62.5 Z"/></g>
<g><path style="opacity:1" fill="#16181d" d="M 188.5,59.5 C 195.88,59.5535 198.38,63.2201 196,70.5C 192.76,75.7007 189.426,75.7007 186,70.5C 184.812,66.2586 185.645,62.5919 188.5,59.5 Z"/></g>
<g><path style="opacity:1" fill="#1a1c21" d="M 223.5,62.5 C 222.207,63.1582 220.707,63.4915 219,63.5C 217.014,63.4313 215.514,62.7647 214.5,61.5C 216.527,58.1637 219.193,57.6637 222.5,60C 223.252,60.6708 223.586,61.5041 223.5,62.5 Z"/></g>
<g><path style="opacity:1" fill="#16181d" d="M 320.5,59.5 C 327.88,59.5535 330.38,63.2201 328,70.5C 324.76,75.7007 321.426,75.7007 318,70.5C 316.812,66.2586 317.645,62.5919 320.5,59.5 Z"/></g>
<g><path style="opacity:1" fill="#16181d" d="M 349.5,59.5 C 356.88,59.5535 359.38,63.2201 357,70.5C 353.76,75.7007 350.426,75.7007 347,70.5C 345.812,66.2586 346.645,62.5919 349.5,59.5 Z"/></g>
<g><path style="opacity:1" fill="#1a1c21" d="M 383.5,62.5 C 382.207,63.1582 380.707,63.4915 379,63.5C 377.014,63.4313 375.514,62.7647 374.5,61.5C 376.527,58.1637 379.193,57.6637 382.5,60C 383.252,60.6708 383.586,61.5041 383.5,62.5 Z"/></g>
<g><path style="opacity:1" fill="#65696f" d="M 285.5,59.5 C 286.552,61.256 288.219,61.9227 290.5,61.5C 288.735,62.4614 286.735,62.7947 284.5,62.5C 284.263,61.209 284.596,60.209 285.5,59.5 Z"/></g>
<g><path style="opacity:1" fill="#8b8f95" d="M 74.5,61.5 C 75.5145,62.7647 77.0145,63.4313 79,63.5C 80.7067,63.4915 82.2067,63.1582 83.5,62.5C 84.0431,62.56 84.3764,62.8933 84.5,63.5C 80.8927,64.4892 77.226,64.8226 73.5,64.5C 73.2627,63.209 73.596,62.209 74.5,61.5 Z"/></g>
<g><path style="opacity:1" fill="#8b8f95" d="M 214.5,61.5 C 215.514,62.7647 217.014,63.4313 219,63.5C 220.707,63.4915 222.207,63.1582 223.5,62.5C 224.043,62.56 224.376,62.8933 224.5,63.5C 220.893,64.4892 217.226,64.8226 213.5,64.5C 213.263,63.209 213.596,62.209 214.5,61.5 Z"/></g>
<g><path style="opacity:1" fill="#8b8f95" d="M 374.5,61.5 C 375.514,62.7647 377.014,63.4313 379,63.5C 380.707,63.4915 382.207,63.1582 383.5,62.5C 384.043,62.56 384.376,62.8933 384.5,63.5C 380.893,64.4892 377.226,64.8226 373.5,64.5C 373.263,63.209 373.596,62.209 374.5,61.5 Z"/></g>
<g><path style="opacity:1" fill="#181a1f" d="M 292.5,68.5 C 294.833,68.5 297.167,68.5 299.5,68.5C 299.11,73.534 296.444,75.3673 291.5,74C 290.243,71.9235 290.576,70.0902 292.5,68.5 Z"/></g>
</svg>

<svg xmlns="http://www.w3.org/2000/svg" width="438" height="106" style="shape-rendering:geometricPrecision;text-rendering:geometricPrecision;image-rendering:optimizeQuality;fill-rule:evenodd;clip-rule:evenodd"><path style="opacity:1" fill="#0e1116" d="M-.5-.5h438v106H-.5V-.5z"/><path style="opacity:1" fill="#dde3e8" d="M63.5 55.5c-1.765.961-3.765 1.295-6 1-4.226-7.119-9.392-7.786-15.5-2-2.122 5.787-1.789 11.453 1 17 6.095 3.56 10.928 2.393 14.5-3.5a18.436 18.436 0 0 1 6-.5c-.056 5.603-2.723 9.436-8 11.5-14.057 2.937-21.39-2.73-22-17 .585-13.47 7.585-19.137 21-17 5.027 1.853 8.027 5.353 9 10.5z"/><path style="opacity:1" fill="#85898f" d="M100.5 45.5h-6v34c-.995-11.488-1.328-23.155-1-35 2.56-.302 4.893.032 7 1z"/><path style="opacity:1" fill="#e6ecf1" d="M100.5 45.5v34h-6v-34h6z"/><path style="opacity:1" fill="#85898f" d="M112.5 45.5h-6v34c-.995-11.488-1.328-23.155-1-35 2.559-.302 4.893.032 7 1z"/><path style="opacity:1" fill="#e6ecf1" d="M112.5 45.5v34h-6v-34h6z"/><path style="opacity:1" fill="#e2e8ed" d="M126.5 45.5h27v5h-10v29h-7v-29h-10v-5z"/><path style="opacity:1" fill="#e1e7ec" d="M244.5 45.5c2.747-.313 5.414.02 8 1l9.5 23a977.96 977.96 0 0 0 9.5-23 16.868 16.868 0 0 1 8-1v34h-6c.166-7.008 0-14.008-.5-21l-8 20c-1.814 1.26-3.647 1.26-5.5 0a811.746 811.746 0 0 1-8.5-21 242.43 242.43 0 0 0-.5 22h-6v-34z"/><path style="opacity:1" fill="#dee4e9" d="M74.5 53.5c11.195-1.136 16.529 3.864 16 15h-17c.623 4.788 3.29 6.621 8 5.5 2.7-2.368 5.7-2.868 9-1.5-1.137 2.97-3.137 5.136-6 6.5-13.28 2.387-19.113-3.113-17.5-16.5 1.268-4.095 3.768-7.095 7.5-9z"/><path style="opacity:1" fill="#e0e6eb" d="M179.5 87.5v-33h5c-.219 1.175.114 2.175 1 3 .607-.124.94-.457 1-1 .453-.958 1.119-1.792 2-2.5 9.682-1.486 14.682 2.68 15 12.5.275 10.561-4.725 14.728-15 12.5-1.167-.5-2-1.333-2.5-2.5a60.93 60.93 0 0 0-.5 11h-6z"/><path style="opacity:1" fill="#dee4e9" d="M214.5 53.5c11.195-1.136 16.529 3.864 16 15h-17c.623 4.788 3.29 6.621 8 5.5 2.7-2.368 5.7-2.868 9-1.5-1.137 2.97-3.137 5.136-6 6.5-13.28 2.387-19.113-3.113-17.5-16.5 1.268-4.095 3.768-7.095 7.5-9z"/><path style="opacity:1" fill="#dde3e8" d="M290.5 61.5c-2.281.423-3.948-.244-5-2 .754-2.591 2.421-4.424 5-5.5 6.145-1.588 11.311-.088 15.5 4.5.5 6.992.666 13.992.5 21-2.894.458-5.394-.209-7.5-2-3.595 1.956-7.428 2.456-11.5 1.5-4.813-4.041-5.146-8.375-1-13 4.2-1.367 8.533-1.867 13-1.5-.985-6.666-3.985-7.666-9-3z"/><path style="opacity:1" fill="#e0e6eb" d="M311.5 87.5v-33h5c-.219 1.175.114 2.175 1 3 .607-.124.94-.457 1-1 .453-.958 1.119-1.792 2-2.5 9.682-1.486 14.682 2.68 15 12.5.275 10.561-4.725 14.728-15 12.5-1.167-.5-2-1.333-2.5-2.5a60.93 60.93 0 0 0-.5 11h-6zM340.5 87.5v-33h5c-.219 1.175.114 2.175 1 3 .607-.124.94-.457 1-1 .453-.958 1.119-1.792 2-2.5 9.682-1.486 14.682 2.68 15 12.5.275 10.561-4.725 14.728-15 12.5-1.167-.5-2-1.333-2.5-2.5a60.93 60.93 0 0 0-.5 11h-6z"/><path style="opacity:1" fill="#dee4e9" d="M374.5 53.5c11.195-1.136 16.529 3.864 16 15h-17c.623 4.788 3.29 6.621 8 5.5 2.7-2.368 5.7-2.868 9-1.5-1.137 2.97-3.137 5.136-6 6.5-13.28 2.387-19.113-3.113-17.5-16.5 1.268-4.095 3.768-7.095 7.5-9z"/><path style="opacity:1" fill="#e1e6eb" d="M395.5 79.5v-25c2.321-.271 4.321.395 6 2 .607-.124.94-.457 1-1 .111-.617.444-1.117 1-1.5a18.437 18.437 0 0 1 6-.5v6c-2.865-.445-5.365.221-7.5 2-.499 5.99-.666 11.99-.5 18h-6z"/><path style="opacity:1" fill="#dae0e5" d="M150.5 53.5c2.619-.268 5.119.065 7.5 1a145.73 145.73 0 0 0 5.5 16 108.142 108.142 0 0 0 5-17h7a294.532 294.532 0 0 1-10.5 31c-3.327 2.654-7.161 3.654-11.5 3v-5c3.071.576 5.071-.591 6-3.5a1163.896 1163.896 0 0 1-9-25.5z"/><path style="opacity:1" fill="#a6abb0" d="M186.5 56.5c-.06.543-.393.876-1 1-.886-.825-1.219-1.825-1-3h-5v33c-.995-11.154-1.328-22.488-1-34h7c-.237 1.291.096 2.291 1 3zM318.5 56.5c-.06.543-.393.876-1 1-.886-.825-1.219-1.825-1-3h-5v33c-.995-11.154-1.328-22.488-1-34h7c-.237 1.291.096 2.291 1 3zM347.5 56.5c-.06.543-.393.876-1 1-.886-.825-1.219-1.825-1-3h-5v33c-.995-11.154-1.328-22.488-1-34h7c-.237 1.291.096 2.291 1 3z"/><path style="opacity:1" fill="#a4a9ae" d="M402.5 55.5c-.06.543-.393.876-1 1-1.679-1.605-3.679-2.271-6-2v25c-.993-8.484-1.326-17.15-1-26 3.033-.368 5.7.298 8 2z"/><path style="opacity:1" fill="#7d8287" d="M63.5 55.5c.543.06.876.393 1 1-2.473 1.297-4.807 1.297-7 0 2.235.295 4.235-.039 6-1z"/><path style="opacity:1" fill="#1a1c21" d="M83.5 62.5c-1.293.658-2.793.992-4.5 1-1.986-.069-3.486-.735-4.5-2 2.027-3.336 4.693-3.836 8-1.5.752.67 1.086 1.504 1 2.5z"/><path style="opacity:1" fill="#16181d" d="M188.5 59.5c7.38.053 9.88 3.72 7.5 11-3.24 5.2-6.574 5.2-10 0-1.188-4.241-.355-7.908 2.5-11z"/><path style="opacity:1" fill="#1a1c21" d="M223.5 62.5c-1.293.658-2.793.992-4.5 1-1.986-.069-3.486-.735-4.5-2 2.027-3.336 4.693-3.836 8-1.5.752.67 1.086 1.504 1 2.5z"/><path style="opacity:1" fill="#16181d" d="M320.5 59.5c7.38.053 9.88 3.72 7.5 11-3.24 5.2-6.574 5.2-10 0-1.188-4.241-.355-7.908 2.5-11zM349.5 59.5c7.38.053 9.88 3.72 7.5 11-3.24 5.2-6.574 5.2-10 0-1.188-4.241-.355-7.908 2.5-11z"/><path style="opacity:1" fill="#1a1c21" d="M383.5 62.5c-1.293.658-2.793.992-4.5 1-1.986-.069-3.486-.735-4.5-2 2.027-3.336 4.693-3.836 8-1.5.752.67 1.086 1.504 1 2.5z"/><path style="opacity:1" fill="#65696f" d="M285.5 59.5c1.052 1.756 2.719 2.423 5 2-1.765.961-3.765 1.295-6 1-.237-1.291.096-2.291 1-3z"/><path style="opacity:1" fill="#8b8f95" d="M74.5 61.5c1.014 1.265 2.514 1.931 4.5 2 1.707-.008 3.207-.342 4.5-1 .543.06.876.393 1 1a31.121 31.121 0 0 1-11 1c-.237-1.291.096-2.291 1-3zM214.5 61.5c1.014 1.265 2.514 1.931 4.5 2 1.707-.008 3.207-.342 4.5-1 .543.06.876.393 1 1a31.12 31.12 0 0 1-11 1c-.237-1.291.096-2.291 1-3zM374.5 61.5c1.014 1.265 2.514 1.931 4.5 2 1.707-.008 3.207-.342 4.5-1 .543.06.876.393 1 1a31.12 31.12 0 0 1-11 1c-.237-1.291.096-2.291 1-3z"/><path style="opacity:1" fill="#181a1f" d="M292.5 68.5h7c-.39 5.034-3.056 6.867-8 5.5-1.257-2.076-.924-3.91 1-5.5z"/></svg>
